X: 1412
T:Hornpipe Gan Ainm
R:Hornpipe
S:Paddy Canny and Peter O'Loughlin, Clare (fiddles)
N:As played (P O'L much the louder)
Z:Bernie Stocks
H:Played after "The Rights Of Man" (but might have been a failed attempt to
H:get into "The Plains Of Boyle".
M:4/4
K:D
dB |: AFDF A2dB | (3.A.B.A FA fedc | BABd gefd | (3.e.f.e (3.d.c.B A2dB |
AFDF A2dB | (3.A.B.A FA fedc | BABd gefd |1 ec(3.A.B.c d2dB :|2 ec(3.A.B.c d2de ||
|: fdcd (3.B.c.dAF | Ddcd fdcd | eA(3.A.A.A fA(3.A.A.A | (3.e.f.e (3.d.c.B A2de |
fdcd (3.B.c.dAF | Ddcd fdcd | eAfA gAfA |1 ec(3.A.B.c d2de :|2 ec(3.A.B.c d2dB ||
